src/assets/icons/cardMassage.svg

<svg width="50" height="50" viewBox="0 0 50 50" fill="none" xmlns="http://www.w3.org/2000/svg">
<path d="M43.2378 50C42.209 50 41.2014 49.6231 40.3903 48.897L35.5221 44.613C34.7126 43.9007 34.6338 42.667 35.3462 41.8575C36.0585 41.048 37.2923 40.9693 38.1016 41.6815L42.9772 45.9719C42.9827 45.9767 42.9881 45.9816 42.9935 45.9864C43.0402 46.0283 43.1819 46.156 43.4135 46.0529C43.6452 45.9497 43.6452 45.7589 43.6452 45.6962V11.7142C43.6452 7.40807 40.1419 3.90474 35.8357 3.90474H14.1644C9.85827 3.90474 6.35493 7.40807 6.35493 11.7142V33.3855C6.35493 37.6917 9.85827 41.195 14.1644 41.195H29.1977C31.7881 41.2981 31.7861 44.9975 29.1977 45.0997H14.1644C7.70519 45.0997 2.4502 39.8447 2.4502 33.3855V11.7142C2.4502 5.255 7.70519 0 14.1644 0H35.8357C42.2949 0 47.5499 5.255 47.5499 11.7142V45.6963C47.5499 47.4166 46.5737 48.92 45.0021 49.62C44.4293 49.875 43.83 50 43.2378 50ZM34.2481 25.7837C33.3383 25.2045 32.1317 25.4729 31.5528 26.3827C28.0055 31.4779 21.8609 31.2864 18.3497 26.3827C17.7708 25.473 16.5642 25.2046 15.6545 25.7837C14.7448 26.3626 14.4766 27.5693 15.0555 28.4789C15.2007 28.7072 18.7816 34.0689 25 34.0689C31.2184 34.0689 34.7018 28.7072 34.847 28.4789C35.4259 27.5693 35.1578 26.3626 34.2481 25.7837ZM32.6142 20.6951C31.5359 20.6951 30.6618 19.821 30.6618 18.7427V13.3737C30.7649 10.7833 34.4644 10.7853 34.5666 13.3737V18.7427C34.5666 19.821 33.6925 20.6951 32.6142 20.6951ZM19.4357 18.7427V13.3737C19.3326 10.7833 15.6332 10.7853 15.531 13.3737V18.7427C15.531 19.821 16.4051 20.6951 17.4833 20.6951C18.5616 20.6951 19.4357 19.821 19.4357 18.7427Z" fill="white"/>
</svg>

<svg xmlns="http://www.w3.org/2000/svg" width="50" height="50" fill="none"><path fill="#fff" d="M43.238 50a4.254 4.254 0 0 1-2.848-1.103l-4.868-4.284a1.952 1.952 0 1 1 2.58-2.931l4.875 4.29.017.014c.046.042.188.17.42.067.231-.103.231-.294.231-.357V11.714c0-4.306-3.503-7.81-7.81-7.81h-21.67c-4.307 0-7.81 3.504-7.81 7.81v21.672c0 4.306 3.503 7.809 7.81 7.809h15.033c2.59.103 2.588 3.803 0 3.905H14.164C7.705 45.1 2.45 39.845 2.45 33.385v-21.67C2.45 5.254 7.705 0 14.164 0h21.672C42.295 0 47.55 5.255 47.55 11.714v33.982c0 1.72-.976 3.224-2.548 3.924a4.332 4.332 0 0 1-1.764.38Zm-8.99-24.216a1.952 1.952 0 0 0-2.695.599c-3.547 5.095-9.692 4.903-13.203 0a1.952 1.952 0 1 0-3.295 2.096c.146.228 3.727 5.59 9.945 5.59s9.702-5.362 9.847-5.59c.579-.91.31-2.116-.599-2.695Zm-1.634-5.089a1.952 1.952 0 0 1-1.952-1.952v-5.37c.103-2.59 3.802-2.588 3.905 0v5.37a1.952 1.952 0 0 1-1.953 1.952Zm-13.178-1.952v-5.37c-.103-2.59-3.803-2.588-3.905 0v5.37a1.952 1.952 0 1 0 3.905 0Z"/></svg>
